icons/src/line.3.horizontal.svg

<?xml version="1.0" encoding="UTF-8"?>
<!--Generator: Apple Native CoreSVG 341-->
<!DOCTYPE svg
PUBLIC "-//W3C//DTD SVG 1.1//EN"
       "http://www.w3.org/Graphics/SVG/1.1/DTD/svg11.dtd">
<svg version="1.1" xmlns="http://www.w3.org/2000/svg" xmlns:xlink="http://www.w3.org/1999/xlink" viewBox="0 0 20.1172 10.0293">
 <g>
  <rect height="10.0293" opacity="0" width="20.1172" x="0" y="0"/>
  <path d="M0.732422 10.0293L19.0137 10.0293C19.4238 10.0293 19.7559 9.69727 19.7559 9.27734C19.7559 8.86719 19.4238 8.54492 19.0137 8.54492L0.732422 8.54492C0.322266 8.54492 0 8.86719 0 9.27734C0 9.69727 0.322266 10.0293 0.732422 10.0293Z" fill="white"/>
  <path d="M0.732422 5.76172L19.0137 5.76172C19.4238 5.76172 19.7559 5.43945 19.7559 5.0293C19.7559 4.60938 19.4238 4.27734 19.0137 4.27734L0.732422 4.27734C0.322266 4.27734 0 4.60938 0 5.0293C0 5.43945 0.322266 5.76172 0.732422 5.76172Z" fill="white"/>
  <path d="M0.732422 1.50391L19.0137 1.50391C19.4238 1.50391 19.7559 1.18164 19.7559 0.771484C19.7559 0.361328 19.4238 0.0292969 19.0137 0.0292969L0.732422 0.0292969C0.322266 0.0292969 0 0.361328 0 0.771484C0 1.18164 0.322266 1.50391 0.732422 1.50391Z" fill="white"/>
 </g>
</svg>

<!--Generator: Apple Native CoreSVG 341-->
<!DOCTYPE svg  PUBLIC '-//W3C//DTD SVG 1.1//EN'  'http://www.w3.org/Graphics/SVG/1.1/DTD/svg11.dtd'>
<svg version="1.1" viewBox="0 0 20.117 10.029" xmlns="http://www.w3.org/2000/svg">
 <rect width="20.117" height="10.029" opacity="0"/>
 <path d="m0.73242 10.029h18.281c0.4101 0 0.7422-0.33203 0.7422-0.75196 0-0.41015-0.3321-0.73242-0.7422-0.73242h-18.281c-0.41016 0-0.73242 0.32227-0.73242 0.73242 0 0.41993 0.32227 0.75196 0.73242 0.75196z" fill="#fff"/>
 <path d="m0.73242 5.7617h18.281c0.4101 0 0.7422-0.32227 0.7422-0.73242 0-0.41992-0.3321-0.75196-0.7422-0.75196h-18.281c-0.41016 0-0.73242 0.33204-0.73242 0.75196 0 0.41015 0.32227 0.73242 0.73242 0.73242z" fill="#fff"/>
 <path d="m0.73242 1.5039h18.281c0.4101 0 0.7422-0.32227 0.7422-0.73243s-0.3321-0.74219-0.7422-0.74219h-18.281c-0.41016 0-0.73242 0.33203-0.73242 0.74219s0.32227 0.73243 0.73242 0.73243z" fill="#fff"/>
</svg>
